X:1
T: Caddam Wood
C: R-74
M: C|
Z:
R: polka
K: G
"G"dddd ^c2d2| e2d2 B4| DDDD G2B2| "D7"e2d2 c4|
"D7"cccc B2c2| f2e2 c4|1 e2d2 c2A2| "G"e2d2 ^c2d2:|2 "D"fedc B2A2| "G"G8|]
\
"G"dddd B2B2| dddd B2B2| d4 "E7"e3d| "Am"d2^c2 =c4|
"D7"cccc A2A2| cccc A2A2| f3e f2e2| "G"e2d2 e2d2|
"G"d2d2 dedc| B2B2 B4| d4 "E7"e3d| "Am"d2^c2 =c4|
"D7"c2c2 cdcB| A2A2 A4| "D"dddd e2f2| "G"g8|]
%
